svgs/sharp-regular/parachute-box.svg

<svg xmlns="http://www.w3.org/2000/svg" viewBox="0 0 512 512"><!--! Font Awesome Pro 6.6.0 by @fontawesome - https://fontawesome.com License - https://fontawesome.com/license (Commercial License) Copyright 2024 Fonticons, Inc. --><path d="M383.5 192c.3-5.3 .5-10.6 .5-16c0-51-15.9-96-40.2-127.6C319.5 16.9 288.2 0 256 0s-63.5 16.9-87.8 48.4C143.9 80 128 125 128 176c0 5.4 .2 10.7 .5 16L232 192l0 128-24 0-10.4 0L96.3 188.9c-.2-4.3-.3-8.6-.3-12.9c0-64 22.2-121.2 57.1-159.3C50.3 53.5 8.3 142.1 0 192l38 0L160 349.8l0 18.2 0 96 0 48 48 0 96 0 48 0 0-48 0-96 0-18.2L474 192l38 0c-8.3-49.9-50.3-138.5-153.1-175.3C393.8 54.8 416 112.1 416 176c0 4.3-.1 8.6-.3 12.9L314.4 320 304 320l-24 0 0-128 103.5 0zM208 368l96 0 0 96-96 0 0-96z"/></svg>

<svg xmlns="http://www.w3.org/2000/svg" viewBox="0 0 512 512"><!--! Font Awesome Pro 6.4.0 by @fontawesome - https://fontawesome.com License - https://fontawesome.com/license (Commercial License) Copyright 2023 Fonticons, Inc. --><path d="M383.5 192c.3-5.3 .5-10.6 .5-16c0-51-15.9-96-40.2-127.6C319.5 16.9 288.2 0 256 0s-63.5 16.9-87.8 48.4C143.9 80 128 125 128 176c0 5.4 .2 10.7 .5 16H232V320H208 197.6L96.3 188.9c-.2-4.3-.3-8.6-.3-12.9c0-64 22.2-121.2 57.1-159.3C50.3 53.5 8.3 142.1 0 192H38L160 349.8V368v96 48h48 96 48V464 368 349.8L474 192h38c-8.3-49.9-50.3-138.5-153.1-175.3C393.8 54.8 416 112.1 416 176c0 4.3-.1 8.6-.3 12.9L314.4 320H304 280V192H383.5zM208 368h96v96H208V368z"/></svg>
